X: 1
T: The Trip To Durrow
R: reel
M: 4/4
L: 1/8
K: Dmaj
D2DF ADFA|dfed B3c|dBBA dBBA|FADE FE E2|
D2DF ADFA|dfed B3c|dBBA FAdB|AFEG FD D2:|
|:dcde fefg|afdf gfed|(3Bcd ef gebe|gebe gfef|
d2de fefg|afdf gfed|(3Bcd ef gbag|fdec d2de|
fdec d2de|fded B3c|dBBA dBBA|FADE FE E2|
D2DF ADFA|dfed B3c|dBBA FAdB|AFEG FD D2:|


Tune 891	Setting 28951

